X: 29238
T: New Irish
R: barndance
M: 4/4
K: Dmajor
P: A
|:g/ f>e|d2 d>B A2 A>F|G>FG>A B2 B2|A>^GA>c e2 e2|f>^ef>=e d>ef>e|
d2- d>B A2- A>F|G>FG>A B4|(3ABA c>B A>GF>E|1 D>dA>F D3/2:|2 D>dA>F D2||
P: B
|:(3Bcd|e2 e2 e2 e2|(3cec A>c e4|(3BcB ^A>B e4|(3cdc A>c e2 (3Bcd|
e2 e2 e2 e2|(3cec A>c e4|1 e>f^a>f e>dc>B|A>Bc>B A2:|2 (3efe ^af e>dc>B|A2 G2 F2 E2||
P: A
|:d2 d>B A2 A>F|G>FG>A B4|A>^GA>C e4|f>^ef>=e d>ef>e|
(3ddd d>B (3AAA A>F|G>FG>A B2 B2|(3AAA c>B A>GF>E|1 D>EF>A d>gf>e:|2 D2 A2 d2||
P: C
|:D2|G6 e2|d6 B2|=c>Bc>B c3 A|B>^AB>A B2 d2|
G2 G2 G2 e2|c2 c2 c2 e2|(3ded f>e d>=cB>A|G2 B2 G2:|
P: D
|:g2|(3gag e>c G2 e2|(3ded B>G D2 D2|D>EF>G A>=cB>A|G>AB>=c d2 g2|
(3gag e>c G2 e2|(3ded B>G D4|D>EF>G A>DE>F|1 G2 B2 G2:|2 G2 B2 G3/2||

